icons/communication/messages-24.svg

<svg width="24" height="24" viewBox="0 0 24 24" fill="none" xmlns="http://www.w3.org/2000/svg">
<path fill-rule="evenodd" clip-rule="evenodd" d="M13.6231 18.6427C13.6897 18.6441 13.7566 18.6449 13.8236 18.6449C15.0209 18.6449 16.1642 18.406 17.207 17.9726L21.9154 18.5881C22.6376 18.6825 23.2153 17.9979 23.0006 17.3018L21.8348 13.5214C22.3552 12.3958 22.6452 11.1425 22.6452 9.82332C22.6452 4.95129 18.6957 1.00174 13.8236 1.00174C8.95161 1.00174 5.00206 4.95129 5.00206 9.82332C5.00206 10.1727 5.02237 10.5173 5.06187 10.856C2.95547 11.8611 1.50002 14.0106 1.50002 16.5C1.50002 17.4611 1.71749 18.3736 2.1066 19.1889L1.0805 21.6119C0.779719 22.3221 1.36222 23.0911 2.12737 22.9939L6.00086 22.5017C6.55673 22.6635 7.14388 22.75 7.75002 22.75C10.4491 22.75 12.7486 21.0391 13.6231 18.6427ZM21.1452 9.82332C21.1452 5.77972 17.8672 2.50174 13.8236 2.50174C9.78004 2.50174 6.50206 5.77972 6.50206 9.82332C6.50206 10.0074 6.50885 10.1899 6.5222 10.3706C6.91921 10.2915 7.32977 10.25 7.75002 10.25C11.2018 10.25 14 13.0482 14 16.5C14 16.7173 13.9889 16.932 13.9673 17.1435C14.9737 17.1242 15.9288 16.9022 16.7947 16.5172C16.9298 16.4571 17.0732 16.4402 17.2094 16.4605C17.2175 16.4613 17.2257 16.4623 17.2339 16.4633L21.3378 16.9998L20.3146 13.6819C20.2469 13.4626 20.3007 13.2535 20.4298 12.9843C20.8881 12.0283 21.1452 10.9569 21.1452 9.82332ZM7.75002 11.75C5.12666 11.75 3.00002 13.8766 3.00002 16.5C3.00002 17.2359 3.16684 17.9307 3.46403 18.5506C3.48591 18.5962 3.53517 18.6875 3.53517 18.6875C3.66017 18.8867 3.73469 19.191 3.62281 19.4552L2.80078 21.3963L5.97177 20.9934C6.091 20.9782 6.20725 20.992 6.31348 21.0291C6.76574 21.1724 7.2481 21.25 7.75002 21.25C10.3734 21.25 12.5 19.1234 12.5 16.5C12.5 13.8766 10.3734 11.75 7.75002 11.75Z" fill="black"/>
</svg>

<svg xmlns="http://www.w3.org/2000/svg" width="24" height="24"><path fill-rule="evenodd" d="M13.623 18.643l.2.002a8.806 8.806 0 003.384-.672l4.708.615a1 1 0 001.086-1.286l-1.166-3.78c.52-1.126.81-2.38.81-3.699a8.822 8.822 0 10-17.583 1.033 6.25 6.25 0 00-2.955 8.333L1.08 21.612a1 1 0 001.047 1.382l3.874-.492a6.253 6.253 0 007.622-3.859zm7.522-8.82a7.322 7.322 0 10-14.623.548 6.25 6.25 0 017.445 6.773 7.286 7.286 0 002.828-.627.746.746 0 01.439-.054l4.104.537-1.023-3.318c-.068-.22-.014-.428.115-.698a7.29 7.29 0 00.715-3.16zM7.75 11.75a4.75 4.75 0 00-4.286 6.8c.022.046.071.137.071.137.125.2.2.504.088.768L2.8 21.396l3.17-.403a.747.747 0 01.342.036 4.75 4.75 0 101.437-9.28z"/></svg>
